!!!!SEGMENT: pl-sa--300-a-vii-60--002_lechleitner-ferdinand-simon--psalmi-memento-domine-david.krn
!!!cenid: 17xx:420
!!!COM: Lechleitner, Ferdinand Simon
!!!COM-rismid: pe30001903
!!!CDT: ~1700-~1800
!!!CNT:
!!!OPR: Psalmi
!!!OTL: Memento Domine David
!!!OMV: 002
!!!PDT:
!!!AGN: Sacred
!!!SMS-siglum: PL-SA
!!!SMS-shelfmark: 300/A VII 60
!!!SMS-shelfwork: 001-002 M
!!!NIFC-rismid: 1001039712
!!!system-decoration: [(s1,s2,s3,s4)][(s5,s6)]s7
!!!AIN: 1 alto 2 empty 1 tenor 2 violn 1 vox
!!!key:
**kern	**fba	**kern	**kern	**kern	**text	**kern	**text	**kern	**text	**kern	**text
*part7	*part7	*part6	*part5	*part4	*part4	*part3	*part3	*part2	*part2	*part1	*part1
*staff7	*staff7	*staff6	*staff5	*staff4	*staff4	*staff3	*staff3	*staff2	*staff2	*staff1	*staff1
*Iempty	*	*Ivioln	*Ivioln	*Iempty	*	*Itenor	*	*Ialto	*	*Ivox	*
*I"Partimento Generale	*	*I"Violino 2do	*I"Violino 1mo	*I"Baſso.	*	*I"Tenore	*	*I"Alto	*	*I"Canto	*
*I'org	*	*I'vl II	*I'vl I	*I'B	*	*I'T	*	*I'A	*	*I'C	*
*clefC3	*	*clefG2	*clefG2	*clefF4	*	*clefC4	*	*clefC3	*	*clefC1	*
*k[b-e-]	*	*k[b-e-]	*k[b-e-]	*k[b-e-]	*	*k[b-e-]	*	*k[b-e-]	*	*k[b-e-]	*
*B-:	*	*B-:	*B-:	*B-:	*	*B-:	*	*B-:	*	*B-:	*
*M4/4	*	*M2/2	*M4/4	*M2/2	*	*M2/2	*	*M2/2	*	*M4/4	*
*met(c)	*	*met(c|)	*met(c)	*met(c|)	*	*met(c|)	*	*met(c|)	*	*met(c)	*
=1	=1	=1	=1	=1	=1	=1	=1	=1	=1	=1	=1
*2\right	*	*	*	*2\right	*	*	*	*2\right	*	*2\right	*
!LO:TX:a:t=P:problem=w źródle metrum M4/4	!	!	!LO:TX:a:t=P:problem=w źródle metrum M4/4	!	!	!	!	!	!	!LO:TX:a:t=P:problem=w źródle metrum M4/4	!
!	!	!	!	!LO:TX:a:t=P:problem=w źródle znak przykluczowy b- zapisany w dwóch oktawach	!	!LO:TX:a:t=P:problem=w źródle znak przykluczowy e- zapisany w dwóch oktawach	!	!	!	!	!
!	!	!LO:SIC:o=2:v:t='2' znajduje się przed kluczem i oznaczeniem metrum	!	!LO:SIC:o=2:v:t='2' znajduje się przed kluczem i oznaczeniem metrum	!	!LO:SIC:o=2:v:t='2' znajduje się przed kluczem i oznaczeniem metrum	!	!LO:SIC:o=2:v:t='2' znajduje się przed kluczem i oznaczeniem metrum	!	!	!
!LO:SIC:o=M:v:t='M' znajduje się przed kluczem i oznaczeniem metrum	!	!	!	!	!	!	!	!LO:SIC:o=solo:v:t='solo' dopisane innym atramentem	!	!	!
!	!	!	!	!LO:TX:b:Bi:t=Memento:rj	!	!LO:TX:b:Bi:t=Memento:rj	!	!	!	!LO:TX:b:Bi:t=Memento):rj	!
!LO:TX:b:Bi:t=emento D(omin)e Davit:rj	!	!LO:TX:b:Bi:t=Memento Domine Davit:dur=4w:ext=s:problem=text with extention lines	!LO:TX:b:Bi:t=Memento D(omin)e Davit:dur=4we:ext=s:problem=text with extention lines	!	!	!	!	!	!	!	!
!LO:TX:a:Bi:t=Allegro	!	!	!	!LO:TX:a:Bi:t=Allegro	!	!	!	!	!	!	!
!	!	!	!	!	!	!LO:TX:a:B:t=1	!	!	!	!	!
4B-/	.	0r	0r	0r	.	1r	.	4B-/	Me-	0r	.
8c\L	.	.	.	.	.	.	.	8c\	-men-	.	.
8d\J	.	.	.	.	.	.	.	8d\	-to	.	.
!LO:TX:a:Bi:t=Tut	!	!	!	!	!	!	!	!	!	!	!
8e-\L	.	.	.	.	.	.	.	8e-\	Do-	.	.
16d\L	.	.	.	.	.	.	.	16d\	-mi-	.	.
16e-\JJ	.	.	.	.	.	.	.	16e-\	-ne	.	.
8c\L	.	.	.	.	.	.	.	(>8c\L	Da-	.	.
8f\J	.	.	.	.	.	.	.	8f\J)	.	.	.
=2	=2	=2	=2	=2	=2	=2	=2	=2	=2	=2	=2
8B-/L	.	.	.	.	.	8r	.	8B-/	-vit	.	.
*clefC4	*	*	*	*	*	*	*	*	*	*	*
*k[b-e-]	*	*	*	*	*	*	*	*	*	*	*
8F/	6\	.	.	.	.	8F/	ſi-	8f\	et	.	.
8G/	6	.	.	.	.	8G/	-cut	8en\	om-	.	.
8A/J	.	.	.	.	.	8A/	Ju-	8f\	-nis	.	.
8B-\L	.	.	.	.	.	8B-\	-ra-	8d\	man-	.	.
16A\L	.	.	.	.	.	(>16A\LL	-vit	8f\	-ſue-	.	.
16B-\JJ	.	.	.	.	.	16B-\JJ)	.	.	.	.	.
8G\L	7	.	.	.	.	8.G/	Do-	8f\	-tu-	.	.
.	#	.	.	.	.	.	.	.	.	.	.
8c\J	.	.	.	.	.	.	.	16en\	-di-	.	.
.	.	.	.	.	.	16c\	-mi-	16e\	-nis	.	.
=3	=3	=3	=3	=3-	=3-	=3	=3	=3	=3	=3	=3
8F/L	.	1r	1r	8r	.	8F,</	-no	8f\	e-	1r	.
*clefF4	*	*	*	*	*	*	*	*	*	*	*
*k[b-e-]	*	*	*	*	*	*	*	*	*	*	*
8BB-/	.	.	.	8BB-/	ſi	(<16F/LL	Vo-	8f\	-ius	.	.
.	.	.	.	.	.	16G/JJ)	.	.	.	.	.
8C/	.	.	.	8C/	in-	8A/	-tum	8rd	.	.	.
8D/J	.	.	.	8D/	-tro-	8B-\	Vo-	8f\	ſi	.	.
!	!	!	!	!	!	!	!	!LO:LB:g=original	!	!	!
8E-\L	.	.	.	8E-\	-i-	8B-\	-vit	8g\	de-	.	.
16D\L	.	.	.	16D\	-e-	8B-\	De-	16f\	-de-	.	.
16E-\JJ	.	.	.	16E-\	-ro	.	.	16g\	-ris	.	.
!LO:PB:g=original	!	!	!	!	!	!	!	!	!	!	!
!LO:TX:a:t=P:problem=mixed beam	!	!	!	!	!	!	!	!	!	!	!
8C/L	7	.	.	8C\	in	8B-\	-o	8e-\	ſom-	.	.
8F\J	.	.	.	8F\	ta-	8A\	Ja-	8f\	-num	.	.
=4	=4	=4-	=4-	=4	=4	=4	=4	=4	=4	=4-	=4-
8D/L	6	8r	8rdd	16D/	-ber-	8B-\	-cob	8f\	O-	8re	.
.	.	.	.	16D/	-na-	.	.	.	.	.	.
8BB-/J	.	8f/L	8dd\L	16C/	-cu-	8B-\	Ec-	16f\	-cu-	8f/	Et
.	.	.	.	16BB-/	-lum	.	.	16e-\	-lis	.	.
8En\L	.	8g/	8cc\	8En\	Do-	8c\	-ce	8en\	me-	8g\	re-
8F\J	.	8a/J	8ff\J	8F\	-mus	16c\	au-	16a\	-is	16g\	-qui-
!	!	!	!	!	!	!LO:LB:g=original	!	!	!	!	!
.	.	.	.	.	.	16c\	-di-	16a\	et	16a\	-em
4D\	6	8b-/L	8ff\L	8D\	mae-	8d\	-vi-	8f\	pal-	(>8b-\L	tem-
.	.	16a/L	16bb-\L	8D\	-e	16d\	-m(us)	16f\	-pe-	16a\L	.
.	.	16b-/JJ	16ff\JJ	.	.	16d\	e-	16f\	-bris	16b-\JJ)	.
4En\	6	8g/L	8een\L	8En\	ſi	8c\	-am	8g\	me-	8g\	-po-
.	5	16cc/L	8gg\J	8E\	as-	16c\	in	16g\	-is	16cc\	-ri-
.	.	16b-/JJ	.	.	.	16c\	Eu-	16g\	pal-	16b-\	-b(us)
!	!	!	!	!LO:LB:g=original	!	!	!	!	!	!	!
=5	=5	=5	=5	=5	=5	=5	=5	=5	=5	=5	=5
8F\L	.	8a/L	8aa\L	8.F\	-cen-	16c\	-phra-	8f\	-pe-	8a\	me-
.	.	.	.	.	.	16c\	-ta	.	.	.	.
8F\	.	8f/J	8aa\	.	.	16c\	in-	8f\	-bris	8f/	-is
.	.	.	.	16F\	-de-	16c\	-Ve-	.	.	.	.
8G\	6	8b-\L	8aa\	8G\	-ro	8B-\	-ni-	8.en\	Dor-	8b-\	do-
8A\J	6	16b-\L	8gg\J	8A\	in	16A\	-m(us)	.	.	16b-\	-nec
.	.	16cc\JJ	.	.	.	16A\	e-	16f\	-mi-	16cc\	in-
!	!	!	!	!	!	!	!	!LO:TX:b:Bi:t=Verte Cito	!	!	!
!	!	!	!	!	!	!	!	!LO:PB:g=original	!	!	!
8B-\L	.	8dd\L	8ff\L	8B-\	lec-	8F/	-am	8f\	-ta-	8dd\	-Ve-
16A\L	.	16cc\L	16gg\L	(>16A\LL	-tum	16B-\	in	8f\	-ti-	16cc\	-ni-
16B-\JJ	.	16dd\JJ	16ff\JJ	16B-\JJ)	.	16B-\	Cam-	.	.	16dd\	-am
8G\L	7	8dd\L	8.gg\L	8G\	ſtra-	8B-\	-pis	(>8f\L	-o-	8.b-\	lo-
8c\J	#7	8een\J	.	8c\	-ti	8c\	ſil-	8en\J)	.	.	.
.	.	.	16gg\Jk	.	.	.	.	.	.	16b-\	-cu(m)
=6	=6	=6	=6	=6	=6	=6	=6	=6	=6	=6	=6
8F\L	.	8cc\L	8aa\L	8F\	me-	8c\	-vae	4f\	-nem	8a\	Do-
8B-\	.	16dd\L	8ff\	16F\	-i	16c\	.	.	.	16a\	-mi-
.	.	16dd\JJ	.	16B-\	in	16B-\	.	.	.	16a\	-no
!	!	!	!	!	!	!LO:LB:g=original	!	!	!	!	!
8A\	.	8cc\L	8ff\	8A\	lec-	8c\	in-	4r	.	8cc\	ta-
8B-\J	.	8b-\J	8ff\J	8B-\	-tu(m)	8d\	-tro-	.	.	8b-\	-ber-
!	!	!	!	!	!	!	!	!	!	!LO:LB:g=original	!
4G\	6	8b-\L	8ee-\L	8.G\	ſtra-	8e-\	-i-	2r	.	8b-\	-na-
.	.	16b-\L	16ff\L	.	.	16d\	-bi-	.	.	16b-\	-cu-
.	.	16b-\JJ	16gg\JJ	16G\	-ti	16e-\	-mus	.	.	16b-\	-lu(m)
!	!	!	!LO:TX:a:t=P:problem=mixed beam	!	!	!	!	!	!	!	!
!	!	!	!	!	!	!	!	!	!	!LO:TX:a:B:t=t	!
4A\	6	8a\L	8cc/L	4A\	me-	8c\	in	.	.	8.cc\	De-
.	5	8cc\J	8aa\J	.	.	16f\	ta-	.	.	.	.
.	.	.	.	.	.	16e-\	-ber-	.	.	16cc\	-o
=7	=7	=7	=7	=7	=7	=7	=7	=7	=7	=7	=7
8B-\L	.	8dd\L	8ff\L	8B-\	-i	8d\	-na-	8r	.	8dd\	Ja-
!	!	!	!	!	!	!	!	!	!	!LO:TX:a:t=P:problem=w źródle oddech po pauzie	!
8G\	- x	8gg\J	8bb-\	(>8G\L	ſur-	16c\	-cu-	(>8g\L	ſur-	8dd,<\	-cob
.	.	.	.	.	.	16B-\	-lum	.	.	.	.
8A\	6 x	8cc\L	8aa\	8A\J)	.	8c\	e-	8f#X\J)	.	8rb	.
8B-\J	6 x	8b-\J	8gg\J	8B-\	-ge	8d\	-jus	8g\	-ge	16dd\	ſur-
.	.	.	.	.	.	.	.	.	.	16dd\	-ge
!	!	!LO:LB:g=original	!	!	!	!	!	!	!	!	!
8c\L	6_ 5_	16dd\LL	16aa\LL	16c\	Do-	8rd	.	16g\	Do-	16cc\	D(o-
.	.	16ee-\	16aa\	16c\	-mi-	.	.	16g\	-mi-	16cc\	-mi-
!	!	!	!	!LO:LB:g=original	!	!	!	!	!	!	!
16B-\L	.	16dd\	16gg\	16B-\	-ne	16e-\	a-	16g\	-ne	16cc\	-)ne
16c\JJ	X X	16ee-\JJ	16aa\JJ	16c\	in	16e-\	-do-	16g\	in	16cc\	in
8A\L	7 x	8cc\L	8gg\L	8A\	re-	16e-\	-ra-	8g\	Re-	8cc\	Re-
.	.	.	.	.	.	16e-\	-bi-	.	.	.	.
8d\J	# x	8dd\J	16gg\L	16D/	-qui-	16d\	-mus	16f#X\	-qui-	16cc\	-qui-
.	.	.	16aa\JJ	16D/	-em	16c\	in	16f#\	-em	16cc\	-em
=8	=8	=8	=8	=8	=8	=8	=8	=8	=8	=8	=8
8G\L	.	16dd\LL	16bb-\LL	16G\	tu-	16B-\	lo-	16g\	tu-	16dd\	tu-
.	.	16dd\	16ff\	16G\	-am	16B-\	-co	16g\	-am	16dd\	-a(m)
8B-\	3	16dd\	16ff\	16B-\	tu	16B-\	u-	16fn\	tu	16dd\	tu
!	!	!	!	!	!	!LO:LB:g=original	!	!LO:LB:g=original	!	!	!
!	!	!	!	!	!	!LO:N:vis=8	!	!	!	!	!
.	.	16dd\JJ	16ff\JJ	16B-\	et	16B-\	-bi	16f\	et	16dd\	et
8A\	6	8cc\L	8ff\L	8A\	ar-	8c\	ſte-	8f\	ar-	8cc\	ar-
8B-\J	.	16cc\L	16ff\L	16A\	-ca	8B-\	-te-	16f\	-ca	8cc\	-ca
.	.	16dd\JJ	16ff\JJ	16B-\	ſan-	.	.	16f\	ſan-	.	.
!LO:LB:g=original	!	!	!	!	!	!	!	!	!	!	!
8G\L	6	8ee-\L	8bb-\L	8G\	-cti-	4.B-\	-runt	8g\	-cti-	16dd\	ſan-
.	.	.	.	.	.	.	.	.	.	16ee-\	-cti-
8F\	6	8ff\J	8aa\J	8F\	-fi-	.	.	8a\	-fi-	8dd\	-fi-
!	!	!	!LO:LB:g=original	!	!	!	!	!	!	!	!
8G\	.	8ee-\L	8bb-\L	8G\	-ca-	.	.	8g\	-ca-	8ee-\	-ca-
8A\J	.	16ff\L	16aa\L	8A\	-ti-	8c\	.	8f\	-ti-	8ff\	-ti-
.	.	16ee-\JJ	16gg\JJ	.	.	.	.	.	.	.	.
!	!	!	!	!	!	!	!	!	!	!LO:PB:g=original	!
=9	=9	=9	=9	=9	=9	=9	=9	=9	=9	=9	=9
!LO:TX:a:t=P:problem=mixed beam	!	!	!	!	!	!	!	!	!	!	!
8B-\L	.	8dd\L	16ff\LL	8B-\	-o-	8d\	pe-	8f\	-o-	8dd\	-o-
.	.	.	16ee-\	.	.	.	.	.	.	.	.
8E-\	6 5	8gg\J	16ee-\	8E-\	-nis	8e-\	-des	8g\	-nis	8cc\	-nis
.	.	.	16bb-\JJ	.	.	.	.	.	.	.	.
!	!	!	!	!LO:TX:a:t=P:problem=mixed beam	!	!	!	!	!	!	!
8F\	.	8cc\L	8bb-\L	(>8F\L	tu-	4c\	e-	4f\	tu-	4cc\	tu-
8FF/J	4 x	8ff\J	8aa\J	8FF/J)	.	.	.	.	.	.	.
.	3 x	.	.	.	.	.	.	.	.	.	.
!LO:TX:a:t=P:problem=mixed beam	!	!	!LO:TX:a:t=P:problem=mixed beam	!	!	!	!	!	!	!	!
8BB-/L	.	8ff\	8bb-\L	8BB-/	-ae	8d\	-jus	4f,<\	-ae	8b-\	-ae
!LO:TX:b:i:t=ſolo	!	!	!	!	!	!	!	!	!	!	!
8B-\	.	8rff	8b-/	8rF	.	8rc	.	.	.	8rb	.
8A\	.	4rdd	8cc/	4r	.	4r	.	8f\	ſa-	4r	.
8B-\J	.	.	8dd/J	.	.	.	.	8f\	-cer-	.	.
!	!	!	!	!LO:LB:g=original	!	!	!	!	!	!	!
=10	=10	=10	=10	=10	=10	=10-	=10-	=10	=10	=10-	=10-
4G\	6	2r	8ee-\L	2r	.	00r	.	8.g\	-do-	0r	.
.	.	.	16dd\L	.	.	.	.	.	.	.	.
.	.	.	16ee-\JJ	.	.	.	.	16g\	-tes	.	.
4A\	6	.	8cc\L	.	.	.	.	8f\	tu-	.	.
.	.	.	8ff\J	.	.	.	.	16f\	-i	.	.
.	.	.	.	.	.	.	.	16e-\	in-	.	.
8B-\L	5	8rg	8b-\L	8B-\	Pro-	.	.	8d\	-du-	.	.
!	!	!	!	!	!	!	!	!LO:LB:g=original	!	!	!
8A\	6	8f/L	8ff\J	8A\	-pter	.	.	8a\	-an-	.	.
8G\	6\	8g/	8ee-\L	8G\	Da-	.	.	8b-\	-tur	.	.
8F\J	.	8a/J	8ff\J	8F\	-vit	.	.	8a\	Ju-	.	.
=11	=11	=11	=11	=11	=11	=11	=11	=11	=11	=11	=11
4F\	x 2	8b-\L	8dd\L	8.F\	ſer-	.	.	16g\	-ſti-	.	.
.	6 4	.	.	.	.	.	.	16g\	-ti-	.	.
.	.	16a\L	8dd\	.	.	.	.	16g\	-am	.	.
.	.	16b-\JJ	.	16F\	-vum	.	.	16g\	et	.	.
4En\	6 x	8g/L	8.ccT>\	8En\	tu-	.	.	8en\	ſanc-	.	.
.	5 x	8cc/J	.	8E\	-um	.	.	8g\	-ti	.	.
.	.	.	16b-\Jk	.	.	.	.	.	.	.	.
!LO:TX:a:t=P:problem=mixed beam	!	!	!	!	!	!	!	!	!	!	!
8F\L	.	8f/L	8a\L	8F\	non	.	.	8a\	tu-	.	.
8BB-/	.	8f/	8dd\	8BB-/	a-	.	.	16f\	-i	.	.
.	.	.	.	.	.	.	.	16f\	e-	.	.
8C/	6 x	8a/	8cc\	8C/	-ver-	.	.	8e\	-xul-	.	.
8D/J	5 x	8b-/J	8b-\J	8D/	-tas	.	.	8d\	-tent	.	.
=12	=12	=12	=12	=12	=12	=12	=12	=12-	=12-	=12-	=12-
8E-\L	6	8cc\L	8ee-\L	8E-\	fa-	.	.	00r	.	2r	.
16D\L	.	8b-\	16ff\L	16D\	-ci-	.	.	.	.	.	.
16E-\JJ	.	.	16gg\JJ	16E-\	-em	.	.	.	.	.	.
8C\L	.	8b-\	8cc\L	8C/	Chri-	.	.	.	.	.	.
8F\J	7	8a\J	8ff\J	8F\	-ſti	.	.	.	.	.	.
!LO:TX:a:t=P:problem=mixed beam	!	!	!	!	!	!	!	!	!	!	!
8BB-/L	.	8b-/	8dd\	8BB-/	tu-	.	.	.	.	8r	.
8B-\	6	8r	8rdd	8BB-/	-i	.	.	.	.	8g\	Ju-
8A\	6	4rg	4r	4r	.	.	.	.	.	8a\	-ra-
!LO:TX:a:t=P:problem=w źródle strzałka nad nutą 8G	!	!	!	!	!	!	!	!	!	!	!
8G\J	.	.	.	.	.	.	.	.	.	8b-\	-vit
!	!	!LO:LB:g=original	!	!LO:LB:g=original	!	!	!	!	!	!	!
=13	=13	=13	=13-	=13	=13	=13	=13	=13	=13	=13	=13
8A\L	.	00r	00r	00r	.	.	.	.	.	8cc\	Do-
8G\J	.	.	.	.	.	.	.	.	.	16b-\	-mi-
.	.	.	.	.	.	.	.	.	.	16cc\	-n(us)
!LO:LB:g=original	!	!	!	!	!	!	!	!	!	!	!
8F#X\L	.	.	.	.	.	.	.	.	.	8a\	Da-
8D\J	.	.	.	.	.	.	.	.	.	8dd\	-vit
8G\L	.	.	.	.	.	.	.	.	.	(>8b-\L	Ve-
8F#X\	.	.	.	.	.	.	.	.	.	8a\J)	.
8G\	.	.	.	.	.	.	.	.	.	(>8b-\L	-ri-
8E-\J	.	.	.	.	.	.	.	.	.	8cc\J)	.
=14	=14	=14	=14	=14	=14	=14	=14	=14	=14	=14	=14
!LO:TX:a:t=P:problem=w źródle zamazany # nad nutą 8D	!	!	!	!	!	!	!	!	!	!	!
8D\L	.	.	.	.	.	1r	.	.	.	8dd\	-ta-
8D\	n	.	.	.	.	.	.	.	.	16dd\	-tem
.	.	.	.	.	.	.	.	.	.	16dd\	et
!LO:SIC:s=8En:v	!	!	!	!	!	!	!	!	!	!	!
8E-\	6\	.	.	.	.	.	.	.	.	8cc#Xi\	non
!	!	!	!	!	!	!	!	!	!	!LO:LB:g=original	!
!LO:SIC:s=8F#:v	!	!	!	!	!	!	!	!	!	!	!
8F\J	.	.	.	.	.	.	.	.	.	8dd\	fru-
8G\L	.	.	.	.	.	.	.	.	.	8dd\	-ſtra-
!LO:SIC:s=16F#:v	!	!	!	!	!	!	!	!	!	!	!
16F\L	.	.	.	.	.	.	.	.	.	16een\	-bi-
16G\JJ	.	.	.	.	.	.	.	.	.	16dd\	-tur
8E-\L	7	.	.	.	.	.	.	.	.	(>8dd\L	e-
8A\J	#	.	.	.	.	.	.	.	.	8cc#X\J)	.
=15	=15	=15	=15	=15	=15	=15-	=15-	=15	=15	=15	=15
8D\L	n	.	.	.	.	4r	.	.	.	4dd,<\	-am
8D\	.	.	.	.	.	.	.	.	.	.	.
8En\	.	.	.	.	.	8F/	ſi	.	.	4dd\	de
8F\J	.	.	.	.	.	8F/	cu-	.	.	.	.
8En\L	6	.	.	.	.	8G/	-ſto-	.	.	8.ccn\	fru-
8D\	.	.	.	.	.	8G/	-di-	.	.	.	.
.	.	.	.	.	.	.	.	.	.	16dd\	-ctu
8E\	.	.	.	.	.	8G/	-e-	.	.	8cc\	Ven-
8C\J	.	.	.	.	.	8G/	-rint	.	.	8b-\	-tris
=16	=16	=16	=16	=16	=16	=16	=16	=16	=16	=16	=16
8F\L	.	.	.	.	.	8A\	fi-	1r	.	8a\	tu-
8F\	.	.	.	.	.	16A\	-li-	.	.	8f/	-i
.	.	.	.	.	.	16A\	-i	.	.	.	.
8G\	.	.	.	.	.	8B-\	tu-	.	.	16ff\LL	po-
.	.	.	.	.	.	.	.	.	.	16ee-\JJ	.
8A\J	.	.	.	.	.	8c\	-i	.	.	(>16ff\LL	-nam
.	.	.	.	.	.	.	.	.	.	16cc\JJ)	.
*	*	*	*	*	*	*	*	*	*	*	*ij
8B-\L	.	.	.	.	.	(>16B-\LL	te-	.	.	8dd\	po-
.	.	.	.	.	.	16c\JJ)	.	.	.	.	.
8G\	.	.	.	.	.	8d\	-ſta-	.	.	8b-\	-nam
*	*	*	*	*	*	*	*	*	*	*	*Xij
!	!	!	!	!	!	!LO:LB:g=original	!	!	!	!	!
8En\	.	.	.	.	.	8.c\	-men-	.	.	8cc\	ſu-
8C\J	.	.	.	.	.	.	.	.	.	8ee-\	-per
.	.	.	.	.	.	16c\	-tum	.	.	.	.
=17	=17	=17	=17	=17	=17	=17	=17	=17-	=17-	=17	=17
8BB-/L	.	0r	0r	00r	.	8d\	me-	2r	.	(>16dd\LL	ſe-
.	.	.	.	.	.	.	.	.	.	16ee-\JJ)	.
!	!	!	!	!	!	!	!	!	!	!LO:LB:g=original	!
8AA/	.	.	.	.	.	16d\	-um	.	.	(>16ff\LL	-dem
.	.	.	.	.	.	16c\	et	.	.	16a\JJ)	.
8BB-/	.	.	.	.	.	8d\	te-	.	.	4g/	tu-
8C/J	.	.	.	.	.	8en\	-ſti-	.	.	.	.
!LO:LB:g=original	!	!	!	!	!	!	!	!	!	!	!
8D/L	.	.	.	.	.	8.f\	-mo-	8r	.	4f/	-am
16C/L	.	.	.	.	.	.	.	8f\	et	.	.
16BB-/JJ	.	.	.	.	.	16f\	-ni-	.	.	.	.
8AA/L	.	.	.	.	.	8f\	-a	8.f\	fi-	4r	.
8FF/J	.	.	.	.	.	16c\	me-	.	.	.	.
.	.	.	.	.	.	16B-\	-a	16f\	-li-	.	.
!	!	!	!	!	!	!	!	!LO:LB:g=original	!	!	!
=18	=18	=18	=18	=18	=18	=18	=18	=18	=18	=18-	=18-
8BB-/L	.	.	.	.	.	4d\	haec	8f\	-i	0r	.
8C/	.	.	.	.	.	.	.	8en\	e-	.	.
8D/	.	.	.	.	.	(>16f\LL	quae	8f\	-o-	.	.
.	.	.	.	.	.	16en\JJ)	.	.	.	.	.
8AA/J	.	.	.	.	.	(>16d\LL	do-	16f\	-rum	.	.
.	.	.	.	.	.	16c\JJ)	.	16f\	us-	.	.
!LO:TX:a:t=P:problem=mixed beam	!	!	!	!	!	!	!	!	!	!	!
8BB-/L	.	.	.	.	.	(>16d\LL	-ce-	8g\	-q(ue)	.	.
.	.	.	.	.	.	16c\JJ)	.	.	.	.	.
8GG/	.	.	.	.	.	16B-\LL	-bo	8g\	in	.	.
.	.	.	.	.	.	16A\JJ	.	.	.	.	.
8C\	4	.	.	.	.	4G/	e-	8.g\	ſae-	.	.
.	3	.	.	.	.	.	.	.	.	.	.
8CC/J	n	.	.	.	.	.	.	.	.	.	.
.	.	.	.	.	.	.	.	16g\	-cu-	.	.
=19	=19	=19	=19	=19	=19	=19	=19	=19	=19	=19	=19
!LO:TX:a:t=P:problem=mixed beam	!	!	!	!	!	!	!	!	!	!	!
8FF/L	.	1r	1r	.	.	4F/	-os	8a\	-l(um)	.	.
8F\	6	.	.	.	.	.	.	8d\	ſe-	.	.
!	!	!	!	!	!	!	!	!LO:SIC:s=8en:v	!	!	!
8En\	6\	.	.	.	.	4rc	.	8e-\	-de-	.	.
8D\J	.	.	.	.	.	.	.	8f\	-bunt	.	.
!LO:TX:a:t=P:problem=mixed beam	!	!	!	!	!	!	!	!	!	!	!
8G\L	.	.	.	.	.	2r	.	8g\	ſu-	.	.
8En\	.	.	.	.	.	.	.	(>16f\LL	-per	.	.
.	.	.	.	.	.	.	.	16g\JJ)	.	.	.
8A\	#	.	.	.	.	.	.	8en\	ſe-	.	.
8AA/J	.	.	.	.	.	.	.	8a\	-dem	.	.
=20	=20	=20-	=20-	=20	=20	=20-	=20-	=20	=20	=20-	=20-
8D/L	.	8rff	8rff	.	.	0r	.	8f\	tu-	8.dd\	quo-
8BB-/	6	8ff\	8bb-\L	.	.	.	.	8d\	-am	.	.
.	.	.	.	.	.	.	.	.	.	16dd\	-ni-
8C/	6	8ee-\L	8aa\	.	.	.	.	4r	.	8cc\	-am
8D/J	.	16dd\L	8bb-\J	.	.	.	.	.	.	8b-\	e-
.	.	16cc\JJ	.	.	.	.	.	.	.	.	.
!	!	!	!	!	!	!	!	!LO:LB:g=original	!	!	!
8E-\L	.	8b-\L	8.gg\L	.	.	.	.	2r	.	8b-\	-le-
16D\L	.	8ee-\	.	.	.	.	.	.	.	8b-\	-git
16E-\JJ	.	.	16gg\Jk	.	.	.	.	.	.	.	.
!	!	!	!LO:LB:g=original	!	!	!	!	!	!	!	!
!	!	!	!	!	!	!	!	!	!	!LO:TX:a:t=P:problem=w źródle naniesione poprawki na tekst innym atramentem	!
8C\L	.	8ee-\	8gg\L	.	.	.	.	.	.	8b-\	Do-
8F\J	.	8ff\J	8aa\J	.	.	.	.	.	.	16a\	-mi-
.	.	.	.	.	.	.	.	.	.	16a\	-nus
=21	=21	=21	=21	=21	=21	=21	=21	=21-	=21-	=21	=21
!LO:TX:a:t=P:problem=mixed beam	!	!	!	!	!	!	!	!	!	!	!
8BB-/L	.	8ff\L	8ff\L	0r	.	.	.	1r	.	8b-\	Si-
8B-\	.	8dd\J	16ff\L	.	.	.	.	.	.	16b-\	-on
.	.	.	16ff\JJ	.	.	.	.	.	.	16b-\	e-
8A\	.	8cc\L	8ff\L	.	.	.	.	.	.	8cc\	-le-
8B-\J	.	8b-\J	8ff\J	.	.	.	.	.	.	8dd\	-git
8G\L	.	8b-\L	8gg\L	.	.	.	.	.	.	8ee-\	e-
8c\	.	8cc\J	16ff\L	.	.	.	.	.	.	16dd\	-am
.	.	.	16gg\JJ	.	.	.	.	.	.	16ee-\	in
8A\	.	8.cc\L	8.aa\L	.	.	.	.	.	.	8cc\	ha-
8F\J	.	.	.	.	.	.	.	.	.	8ff\	-bi-
.	.	16cc\Jk	16aa\Jk	.	.	.	.	.	.	.	.
!	!	!	!	!	!	!	!	!	!	!LO:LB:g=original	!
=22	=22	=22	=22	=22	=22	=22-	=22-	=22-	=22-	=22	=22
!LO:TX:a:t=P:problem=mixed beam	!	!	!	!	!	!	!	!	!	!	!
8B-\L	.	8dd\L	16bb-\LL	.	.	2r	.	2r	.	8dd\	-ta-
.	.	.	16bb-\	.	.	.	.	.	.	.	.
8E-\	.	8ee-\J	16ccc\	.	.	.	.	.	.	8cc\	-ti-
.	.	.	16gg\JJ	.	.	.	.	.	.	.	.
8F\	.	8.cc\L	8.aa\L	.	.	.	.	.	.	8.cc\	-o-
8FF/J	.	.	.	.	.	.	.	.	.	.	.
.	.	16dd\Jk	16aa\Jk	.	.	.	.	.	.	16b-\	-nem
!LO:LB:g=original	!	!	!	!	!	!	!	!	!	!	!
*clefC4	*	*	*	*	*	*	*	*	*	*	*
*k[b-e-]	*	*	*	*	*	*	*	*	*	*	*
!	!	!	!LO:TX:a:t=P:problem=mixed beam	!	!	!	!	!	!	!	!
!	!	!	!	!	!	!	!	!	!	!LO:TX:a:t=P:problem=w źródle oddech w złym miejscu	!
8BB-/	.	8dd\	8bb-\L	.	.	8rc	.	8rd	.	8b-,<\	ſi-
8B-\L	.	8r	8b-/J	.	.	8B-\	Haec	8f\	Haec	16b-\	-bi
.	.	.	.	.	.	.	.	.	.	16b-\	Haec
8c\	6	4r	4rdd	.	.	8c\	re-	8e-\	re-	8a\	re-
8d\J	6\	.	.	.	.	16c\	-qui-	16f\	-qui-	16a\	-qui-
.	.	.	.	.	.	16d\	-es	16f\	-es	16b-\	-es
!	!	!	!	!	!	!LO:LB:g=original	!	!	!	!	!
=23	=23	=23	=23	=23-	=23-	=23	=23	=23	=23	=23	=23
8e-\L	.	2r	2rdd	2r	.	8e-\	me-	8g\	me-	8b-\	me-
16d\L	.	.	.	.	.	16d\	-a	16f\	-a	16b-\	-a
16e-\JJ	.	.	.	.	.	16e-\	in	16g\	in	16cc\	in
8c\L	7	.	.	.	.	8c\	ſae-	8e-\	ſae-	8cc\	ſae-
8f\J	7	.	.	.	.	16c\	-cu-	16e-\	-cu-	16cc\	-cu-
.	.	.	.	.	.	16f\	-l(um)	16f\	-lum	16cc\	-l(um)
!	!	!	!LO:TX:b:Bi:t=Verte Cito	!	!	!	!	!	!	!	!
!	!	!	!LO:PB:g=original	!	!	!	!	!	!	!	!
!	!	!LO:TX:a:t=P:problem=mixed beam	!LO:TX:a:t=P:problem=mixed beam	!	!	!	!	!	!	!	!
8B-\	.	8f/L	8f/L	8F\	Vi-	8c\	ſae-	8f\	ſae-	8dd\	ſae-
*clefF4	*	*	*	*	*	*	*	*	*	*	*
*k[b-e-]	*	*	*	*	*	*	*	*	*	*	*
8F\L	.	8ff\	8aa\	16F\	-du-	16A\	-cu-	16f\	-cu-	16cc\	-cu-
.	.	.	.	16F\	-am	16A\	-li	16f\	-li	16cc\	-li
!LO:TX:a:t=P:problem=w źródle skreślone belki szesnastek; pomyłka skryptora	!	!	!	!	!	!	!	!	!	!	!
8G\	6\	8een\	8gg\	8G\	e-	8c\	ſae-	8rd	.	4r	.
8A\J	6	8cc\J	8ff\J	8A\	-ius	8c\	-cer-	8f\	hic	.	.
=24	=24	=24	=24	=24	=24	=24	=24	=24	=24	=24	=24
8B-\L	.	8b-\L	8ff\L	16B-\	be-	8d\	-do-	8f\	ha-	2r	.
.	.	.	.	16B-\	-ne-	.	.	.	.	.	.
16A\L	.	8dd\	8ff\	16A\	-di-	16c\LL	-tes	8f\	-bi-	.	.
16B-\JJ	.	.	.	16B-\	-cens	16d\JJ	.	.	.	.	.
8G\L	7	8dd\	8.gg\	8G\	be-	8B-\	e-	8f\	-ta-	.	.
!	!	!	!	!	!	!	!	!LO:LB:g=original	!	!	!
8c\J	n	8een\J	.	8c\	-ne-	8B-\	-jus	8en\	-bo	.	.
.	.	.	16gg\Jk	.	.	.	.	.	.	.	.
8F\L	.	8cc\L	8aa\L	8F\	-di-	8A\	in	8.f\	quo-	8r	.
8B-\	.	8dd\	8ff\	8B-,<\	-cam	16d\	du-	.	.	8b-\	Il-
.	.	.	.	.	.	16d\	-am	16f\	-ni-	.	.
!	!	!	!	!	!	!	!	!	!	!LO:LB:g=original	!
8A\	.	8dd\	8ff\	8A\	pau-	8c\	ſa-	8f\	-am	8cc\	-luc
8B-\J	.	8ff\J	8bb-\J	16B-\	-pe-	8B-\	-lu-	8f\	e-	8dd\	pro-
.	.	.	.	16B-\	-res	.	.	.	.	.	.
!	!	!LO:LB:g=original	!	!	!	!	!	!	!	!	!
=25	=25	=25	=25	=25	=25	=25	=25	=25	=25	=25	=25
!LO:TX:a:t=P:problem=mixed beam	!	!	!	!	!	!	!	!	!	!	!
8G\L	6	8ee-\L	8bb-\L	8G\	e-	8B-\	-ta-	8g\	-le-	8ee-\	-du-
8GG/	.	16dd\L	8ff\	8G\	-ius	16B-\	-ri	8g\	-gi	16dd\LL	-c(am)
.	.	16ee-\JJ	.	.	.	16B-\	et	.	.	16ee-\JJ	.
8A\	6	8.ff\L	8.ccc\	16A\	ſa-	8c\	ſan-	4f\	e-	8cc\	cor-
.	.	.	.	16A\	-tu-	.	.	.	.	.	.
!	!	!	!	!LO:LB:g=original	!	!	!	!	!	!	!
8AA/J	.	.	.	16A\	-ra-	8c\	-cti	.	.	8ff\	-nu
.	.	16ff\Jk	16ccc\Jk	16A\	-bo	.	.	.	.	.	.
!	!	!	!	!	!	!LO:LB:g=original	!	!	!	!	!
!LO:TX:a:t=P:problem=mixed beam	!	!	!	!	!	!	!	!	!	!	!
8B-\L	.	8ff\L	8bb-\L	8B-\	pa-	8c\	e-	8f\	-am	8dd\	Da-
8BB-/	.	8dd\J	8ff\J	16B-\	-ni-	8d\	-jus	8rf	.	16b-\	-vit
.	.	.	.	16B-\	-b(us)	.	.	.	.	16dd\	pa-
!	!	!LO:N:vis=8.	!	!	!	!	!	!	!	!	!
8A\	.	8ff\L	8aa\L	8A\	i-	16A\	e-	4rd	.	8cc\	-ra-
.	.	.	.	.	.	16A\	-xul-	.	.	.	.
8F\J	.	16ff\L	16aa\L	8F\	-ni-	16A\	-ta-	.	.	16cc\	-vi
.	.	16ff\JJ	16aa\JJ	.	.	16A\	-ti-	.	.	16cc\	lu-
=26	=26	=26	=26	=26	=26	=26	=26	=26-	=26-	=26	=26
8B-\L	.	8dd\L	8ff\L	8B-\	-mi-	8B-\	-o-	1r	.	8dd\	-cer-
8A\	.	8dd\	8aa\	8A\	-cos	8B-\	-ne	.	.	8dd\	-n(am)
8G\	6	8een\	8bb-\	8G\	e-	8B-\	e-	.	.	8een\	Chri-
8F\J	.	8ff\J	8ff\J	8F\	-ius	8A\	-xul-	.	.	8ff\	-ſto
8En\L	.	8.gg\L	8.ccc\L	8.En\	in-	8c\	-ta-	.	.	4gg\	me-
8D\	.	.	.	.	.	8c\	-bunt	.	.	.	.
!	!	!	!LO:N:vis=8	!	!	!	!	!	!	!	!
.	.	16gg\K	16ccc\K	16D/	-du-	.	.	.	.	.	.
*	*	*	*	*	*	*	*ij	*	*	*	*
8C\	.	8gg\	8ccc\	8C/	-am	8c\	e-	.	.	8gg,<\	-o
8F\J	.	8ff\J	8aa\J	8F\	Con-	8c\	-xul-	.	.	[>8ff\	Chri-
=27	=27	=27	=27	=27	=27	=27	=27	=27-	=27-	=27	=27
8B-\L	6_ 5_	8ff\L	8.bb-\L	8B-\	-fu-	4d\	-ta-	2r	.	8ff\L]	.
8G\J	X X	16gg\L	.	8G\	-si-	.	.	.	.	16gg\L	-ſto
.	.	16ff\JJ	16bb-\Jk	.	.	.	.	.	.	16ff\JJ	.
!LO:LB:g=original	!	!	!	!	!	!	!	!	!	!	!
!LO:TX:a:t=P:problem=mixed beam	!	!	!	!LO:TX:a:t=P:problem=mixed beam	!	!	!	!	!	!	!
8c\L	.	8ff\L	8.bb-\L	8c\L	-o-	4c\	-bunt	.	.	(>8ff\L	me-
!	!	!	!	!	!	!	!	!	!	!LO:SIC:s=8een:v	!
8C/J	4	8een\J	.	8C/J	.	.	.	.	.	8ee-\J)	.
.	3	.	16bb-\Jk	.	.	.	.	.	.	.	.
*	*	*	*	*	*	*	*Xij	*	*	*	*
8F\L	.	8ff\L	8ccc\L	8F\	-ne	2rF	.	8.f\	ſu-	8ff\	-o
!	!	!	!	!	!	!	!	!	!	!LO:LB:g=original	!
8F\	.	16cc\L	8ccc\	16F\	ſu-	.	.	.	.	16cc\	ſu-
.	.	16cc\JJ	.	16F\	-per	.	.	16f\	-per	16cc\	-per
!	!	!	!	!LO:LB:g=original	!	!	!	!	!	!	!
8En\	.	8cc\L	8bb-\	8En\	ip-	.	.	8g\	ip-	8cc\	ip-
8F\J	.	8cc\J	8aa\J	8F\	-ſum	.	.	8a\	-sum	8cc\	-ſum
!	!	!	!LO:LB:g=original	!	!	!	!	!	!	!	!
=28	=28	=28	=28	=28	=28	=28	=28	=28	=28	=28	=28
!LO:TX:a:t=P:problem=mixed beam	!	!	!	!	!	!	!	!	!	!	!
8D\L	.	8dd\L	8ff\L	8D\	au-	2r	.	8b-\	au-	8ff\	au-
8DD/	.	8ff\	8ff\	8D\	-tem	.	.	(>16a\LL	-tem	8ff\	-te(m)
.	.	.	.	.	.	.	.	16b-\JJ)	.	.	.
8En\	.	8een\	8gg\	8.En\	et	.	.	8g\	ef-	8.een\	ef-
!LO:SIC:s=8EEn:v	!	!	!	!	!	!	!	!	!	!	!
8EE-/J	.	8gg\J	8gg\J	.	.	.	.	8cc\	-flo-	.	.
.	.	.	.	16E\	flo-	.	.	.	.	16dd\	-flo-
*	*	*	*	*	*	*	*	*custos:a	*	*	*
!	!	!	!	!	!	!	!	!LO:LB:g=original	!	!	!
8F\L	.	8ff\L	8aa\L	8F\	-re-	8rc	.	8a\	-re-	8cc\	-re-
!LO:SIC:s=8E-:v	!	!	!	!	!	!	!	!	!	!	!
8E\	.	16ff\L	16gg\L	16F\	-bit	8c\	ſan-	16f\	-bit	16cc\	-bit
.	.	16ff\JJ	16aa\JJ	16E-X\	ſan-	.	.	16f\	ſan-	16cc\	ſan-
8D\	.	8ff\L	8bb-\L	8D/	-cti-	8B-\	-cti-	8f\	-cti-	8dd\	-cti-
8BB-\J	.	8ff\J	8bb-\J	8BB-/	-fi-	8B-\	-fi-	8f\	-fi-	8dd\	-fi-
=29	=29	=29	=29	=29	=29	=29	=29	=29	=29	=29	=29
!LO:TX:a:t=P:problem=mixed beam	!	!	!	!	!	!	!	!	!	!	!
8E-\L	6_ 5_	8ee-\L	8bb-\L	8E-\	-ca-	8B-\	-ca-	8g\	-ca-	8cc\	-ca-
8C\	.	8ee-\J	8bb-\	16C/	-ti-	16B-\	-ti-	16g\	-ti-	16dd\	-ti-
.	.	.	.	16C/	-o	16B-\	-o	16g\	-o	16cc\	-o
!	!	!	!	!	!	!LO:LB:g=original	!	!	!	!	!
!	!	!	!	!LO:TX:a:t=P:problem=mixed beam	!	!	!	!	!	!	!
8F\	5 4	8ff\L	8bb-\	8F\L	me-	(>8B-\L	me-	4f\	me-	4cc\	me-
.	x 3	.	.	.	.	.	.	.	.	.	.
8FF/J	.	8ff\J	8aa\J	8FF/J	.	8c\J)	.	.	.	.	.
!	!	!	!LO:TX:a:t=P:problem=mixed beam	!	!	!	!	!LO:N:vis=16	!	!	!
8BB-/	.	8ff\	8bb-\L	8BB-/	-a	8d\	-a	8f\	-a	8b-\	-a
*clefC1	*	*	*	*	*	*	*	*	*	*	*
*k[b-e-]	*	*	*	*	*	*	*	*	*	*	*
8b-\L	.	8rff	8b-/	8r	.	8rc	.	8rd	.	(>8b-\L	Glo-
8cc\	.	4rdd	8cc/	4r	.	4r	.	4r	.	8cc\	.
8dd\J	.	.	8dd/J	.	.	.	.	.	.	8dd\J)	.
!	!	!LO:TX:b:Bi:t=Verto Cito	!	!	!	!	!	!	!	!	!
!	!	!LO:PB:g=original	!	!	!	!	!	!	!	!	!
=30	=30	=30	=30	=30-	=30-	=30-	=30-	=30	=30	=30	=30
*^	*	*	*	*	*	*	*	*	*	*	*
8ee-\L	2ryy	.	2r	8ee-\L	0r	.	1r	.	2r	.	8ee-\	.
16dd\L	.	.	.	16dd\L	.	.	.	.	.	.	16dd\	-ri-
16ee-\JJ	.	.	.	16ee-\JJ	.	.	.	.	.	.	16ee-\	-a
!	!	!	!	!	!	!	!	!	!	!	!LO:LB:g=original	!
8cc\L	.	.	.	8cc\L	.	.	.	.	.	.	8cc\L	Pa-
8ff\J	.	.	.	8ff\J	.	.	.	.	.	.	8ff\J	.
8b-/L	8r	.	8r	8b-\L	.	.	.	.	8rf	.	8b-\	-tri
8ff/	8f\L	.	8f/L	8ff\	.	.	.	.	8f\L	Glo-	(>8ff\L	glo-
8een/	8g\	.	8g/	8een\	.	.	.	.	8g\	.	8een\	.
8ff/J	8a\J	.	8a/J	8ff\J	.	.	.	.	8a\J	.	8ff\J)	.
=31	=31	=31	=31	=31	=31	=31	=31-	=31-	=31	=31	=31	=31
8dd/L	8b-\L	.	8b-\L	8dd\L	.	.	2r	.	8b-\	-ri-	8dd\	-ri-
8ff/	16a\L	.	16a\L	8ff\	.	.	.	.	16a\	-a	16ff\	-a
.	16b-\JJ	.	16b-\JJ	.	.	.	.	.	16b-\	Fi-	16ff\	Fi-
8ff/	8b-\L	.	8g\L	8ff\	.	.	.	.	8.g\	-li-	8.ff\	-li-
8een/J	8cc\J	.	8cc\J	8een\J	.	.	.	.	.	.	.	.
.	.	.	.	.	.	.	.	.	16cc\	-o	16een\	.
8ff/	8f\	.	8f/L	8ff\L	.	.	8r	.	8f\	.	8ff\	-o
!LO:LB:g=original	!	!	!	!	!	!	!	!	!LO:LB:g=original	!	!	!
*clefC4	*	*	*	*	*	*	*	*	*	*	*	*
*k[b-e-]	*	*	*	*	*	*	*	*	*	*	*	*
8B-\L	4ryy	.	8f/	8dd\	.	.	(>8B-\L	Glo-	(>8f\L	et	(>8dd\L	et
8c\	.	6	8e-/	8cc\	.	.	8c\	.	8e-\J)	.	8cc\J)	.
8d\J	8ryy	6	8f/J	8b-\J	.	.	8d\J)	.	8f\	ſpi-	8b-\	ſpi-
*v	*v	*	*	*	*	*	*	*	*	*	*	*
=32	=32	=32	=32	=32-	=32-	=32	=32	=32	=32	=32	=32
8e-\L	5_	8g/L	8b-\L	2r	.	8e-\	-ri-	8g\	-ri-	8b-\	-ri-
16d\L	.	16f/L	16b-\L	.	.	16d\	-a	16f\	-tu-	16b-\	-tu-
*	*	*	*	*	*	*	*ij	*	*	*	*
16e-\JJ	6	16g/JJ	16cc\JJ	.	.	16e-\	Glo-	16g\	-i	16cc\	-i
8c\L	.	8b-\L	8.cc\L	.	.	8.c\	-ri-	(>8b-\L	ſan-	4cc\	ſan-
8f\J	.	8a\J	.	.	.	.	.	8a\J)	.	.	.
.	.	.	16cc\Jk	.	.	16f\	.	.	.	.	.
!	!	!	!LO:LB:g=original	!	!	!	!	!	!	!	!
8B-\L	.	8b-\L	8dd\L	8rF	.	8B-\	-a	8b-\	-cto	8dd\	-cto
*	*	*	*	*	*	*	*Xij	*	*	*	*
*clefF4	*	*	*	*	*	*	*	*	*	*	*
*k[b-e-]	*	*	*	*	*	*	*	*	*	*	*
!LO:TX:a:t=P:problem=w źródle znak przykluczowy b- zapisany w dwóch oktawach	!	!	!	!	!	!	!	!	!	!	!
8G\	6	8dd\	8gg\J	8G\L	ſi-	(>8B-\L	ſi-	(>8b-\L	ſi-	8rdd	.
8A\	6	8cc\	8ff#X\L	8A\J	.	8c\J)	.	8a\J)	.	4rb	.
!	!	!	!	!LO:TX:a:t=P:problem=w źródle dodatkowa kreska taktowa przed nutą 8B-	!	!	!	!	!	!	!
8B-\J	.	8b-\J	8gg\J	8B-\	-cut	8d\	-cut	8g\	-cut	.	.
!	!	!	!	!LO:LB:g=original	!	!	!	!	!	!	!
=33	=33	=33	=33	=33	=33	=33	=33	=33	=33	=33	=33
8c\L	.	8ee-\L	8gg\L	8c\	e-	8e-\	e-	8g\	e-	1rdd	.
16B-\L	.	8ee-\	8gg\J	16B-\LL	-rat	(>16d\LL	-rat	8a\	-rat	.	.
16c\JJ	.	.	.	16c\JJ	.	16e-\JJ)	.	.	.	.	.
8A\L	7	8ee-\	8gg\L	8A\	in	8c\	in	8.a\	in	.	.
8d\J	#	8dd\J	8ff#X\J	8c\	prin-	8c\	prin-	.	.	.	.
.	.	.	.	.	.	.	.	16a\	Prin-	.	.
8B-\L	6	8dd\L	8.gg\L	8.B-\	-ci-	8.d\	-ci-	8.g\	-ci-	.	.
8A\	.	8cc\J	.	.	.	.	.	.	.	.	.
.	.	.	16gg\K	16A\	-pi-	16d\	-pi-	16g\	-pi-	.	.
8B-\	.	8dd\L	8gg\	8B-\	-o	8d\	-o	8g\	-o	.	.
8G\J	.	8dd\J	8bb-\J	8G\	et	8d\	et	8g\	et	.	.
=34	=34	=34	=34	=34	=34	=34	=34	=34	=34	=34-	=34-
8A\L	6	8ff\L	8aa\L	8A\	nunc	8c\	nunc	8f\	nunc	2rb	.
8F\	6	8ff\J	8aa\	8F,<\	et	8A\	et	8f\	et	.	.
!	!	!	!	!	!	!LO:LB:g=original	!	!	!	!	!
8G\	6	8cc\L	8gg\	8G\L	ſem-	(>8B-\L	ſem-	(>8e-\L	ſem-	.	.
8A\J	5	8ff\J	8ff\J	8A\J	.	8c\J)	.	8f\J)	.	.	.
8B-\L	.	8dd\L	8ff\L	8B-\	-per	8d\	-per	8f\	-per	8rff	.
8B-\	.	16ff\L	16ff\L	16B-\	et	16d\	et	16f\	et	16ff\	et
.	.	16ff\JJ	16ff\JJ	16B-\	in	16d\	in	16f\	in	16ff\	in
!	!	!	!	!	!	!	!	!LO:LB:g=original	!	!	!
8A\	.	16ff\LL	16ff\LL	8A\	ſae-	8c\	ſae-	8a\	ſae-	8ff\	ſae-
.	.	16ff\	16ff\	.	.	.	.	.	.	.	.
8F\J	.	16ff\	16aa\	16F\	-cu-	16c\	-cu-	16a\	-cu-	16ff\	-cu-
!	!	!	!	!	!	!	!	!	!	!LO:LB:g=original	!
.	.	16ff\JJ	16aa\JJ	16F\	-la	16c\	-la	16a\	-la	16ff\	-la
!	!	!LO:LB:g=original	!	!	!	!	!	!	!	!	!
=35	=35	=35	=35	=35	=35	=35	=35	=35	=35	=35	=35
8B-\L	.	8ff\L	8bb-\L	8B-\	ſae-	8d\	ſae-	8f\	ſae-	8ff\	ſae-
8A\	.	8ff\	8ccc\	8A\	-cu-	8c\	-cu-	8a\	-cu-	8ff\	-cu-
8B-\	.	8ff\	8bb-\	8B-\	-lo-	8d\	-lo-	8f\	-lo-	8ff\	-lo-
8F\J	.	8ff\J	8aa\J	8F\	-r(um)	8c\	-r(um)	8a\	-r(um)	8ff\	-r(um)
!LO:TX:a:t=P:problem=mixed beam	!	!	!	!	!	!	!	!	!	!	!
8G\L	6 x	8ee-\L	8bb-\L	8G\	a-	8B-\	A-	8g\	A-	8ee-\	A-
8E-\	6 x	8gg\J	8bb-\	8E-\	-men	8c\	-men	8g\	-men	16dd\LL	-men
.	.	.	.	.	.	.	.	.	.	16cc\JJ	.
!	!	!	!	!LO:TX:a:t=P:problem=mixed beam	!	!	!	!	!	!	!
!	!	!	!	!	!	!	!	!	!	!LO:TX:a:B:t=t	!
8F\	.	8cc\L	8bb-\	(>8F\L	A-	4c\	A-	4f\	A-	8.cc\L	A-
8FF/J	5 4	8ee-\J	8aa\J	8FF/J)	.	.	.	.	.	.	.
.	x 3	.	.	.	.	.	.	.	.	16b-\Jk	.
!	!	!	!	!LO:LB:g=original	!	!	!	!	!	!	!
=36	=36	=36	=36	=36	=36	=36	=36	=36	=36	=36	=36
!LO:TX:a:t=P:problem=mixed beam	!	!	!	!	!	!	!	!	!	!	!
8BB-/L	.	8ff\L	8bb-\L	8BB-/	-men	8d,<\	-men	8f\	-men	8b-\	-men
*	*	*	*	*	*	*	*	*	*ij	*	*
8B-\	.	8b-\	8ff\	8B-\L	A-	8d\L	A-	8f\	A-	8b-\L	A-
8A\	.	8cc\	8ff\	8A\	.	8c\	.	8f\	-men	8cc\	.
*	*	*	*	*	*	*	*	*	*Xij	*	*
8B-\J	.	8dd\J	8ff\J	8B-\J	.	8B-\J	.	8r	.	8dd\J	.
!LO:LB:g=original	!	!	!	!	!	!	!	!	!	!	!
!LO:TX:a:t=P:problem=mixed beam	!	!	!	!	!	!	!	!	!	!	!
8G\L	6	8ee-\L	8ee-\L	4G\	.	8e-\L	.	8g\	A-	8ee-\L	.
8GG/	.	16dd\L	8gg\J	.	.	16c\L	.	8g\	-men	16dd\L	.
.	.	16ee-\JJ	.	.	.	16B-\JJ	.	.	.	16ee-\JJ	.
!	!	!	!LO:LB:g=original	!	!	!	!	!	!	!	!
8A\	6	8cc\L	8aa\L	4A\	.	8c\L	.	4f\	A-	8cc\L	.
8AA/J	.	8ff\J	8aa\J	.	.	16B-\L	.	.	.	8ff\J	.
.	.	.	.	.	.	16c\JJ	.	.	.	.	.
=37	=37	=37	=37	=37	=37	=37	=37	=37	=37	=37	=37
!LO:TX:a:t=P:problem=mixed beam	!	!	!	!	!	!	!	!	!	!	!
8B-\L	.	8b-/L	8ff\L	8B-\	-men	8d\	-men	8f\	-men	8b-\	-men
8E-\	6 5	8b-/	16ee-\L	8E-\	A-	8c\	.	8g\	A-	8b-\	.
.	.	.	16dd\JJ	.	.	.	.	.	.	.	.
!	!	!	!	!LO:TX:a:t=P:problem=mixed beam	!	!	!	!	!	!	!
8F\	.	8b-/	8cc\L	(>8F\L	.	4c\	A-	4f\	.	8b-\	A-
8FF/J	4 x	8a/J	8ff\J	8FF/J)	.	.	.	.	.	8a\	.
.	3 x	.	.	.	.	.	.	.	.	.	.
4BB-/	.	4b-/	4ff\	4BB-/	-men	4d\	-men	4f\	-men	4b-\	-men
4r	.	4r	4rdd	4r	.	4r	.	4r	.	4r	.
!	!	!	!	!	!	!	!	!	!	!LO:LB:g=original	!
=38	=38	=38	=38	=38	=38	=38	=38	=38	=38	=38	=38
!	!	!LO:TX:b:Bi:t=adagio	!	!LO:TX:a:Bi:t=adagio	!	!LO:TX:a:Bi:t=adagio	!	!LO:TX:a:Bi:t=adagio	!	!LO:TX:a:Bi:t=adagio	!
!	!	!	!	!LO:SIC:s=4E-:v	!	!	!	!	!	!	!
4E-\	6 5	4gg\	4bb-\	4En\	A-	4.B-\	A-	4g\	A-	4.cc\	A-
2F\	6 5	8aa\L	8aa\L	4F\	-men	.	.	4f\	-men	.	.
.	.	8ff\J	8bb-\J	.	.	8d\	-men	.	.	8cc\	-men
!	!	!	!	!	!	!LO:LB:g=original	!	!	!	!	!
.	.	4.ff\	4bb-\	2F\	A-	4c\	A-	2f\	A-	2cc\	A-
4FF/	5 4	.	4aa\	.	.	4e-\	.	.	.	.	.
.	7 3	8ff\	.	.	.	.	.	.	.	.	.
=39	=39	=39	=39	=39	=39	=39	=39	=39	=39	=39	=39
1BB-;;	.	1ff;>	1bb-;;	1BB-;>	-men	1d;>	-men	1f	-men	1dd;;	-men
!LO:TX:b:Bi:t=Scrip Casimir(us) Kolasiński	!	!LO:TX:b:Bi:t=S.B.	!	!LO:TX:a:Bi:t=Laus Deo Patri \nS.B.	!	!LO:TX:a:Bi:t=Finis Coronet \nS.B.	!	!LO:TX:b:Bi:t=S.B.	!	!	!
!	!	!	!	!LO:TX:a:t=P:problem=ozdobna kreska końcowa &colon;||&colon;	!	!LO:TX:a:t=P:problem=ozdobna kreska końcowa &colon;||&colon;	!	!LO:TX:a:t=P:problem=ozdobna kreska końcowa &colon;||&colon;	!	!LO:TX:a:t=P:problem=ozdobna kreska końcowa &colon;||&colon;	!
!LO:TX:a:t=P:problem=ozdobna kreska końcowa &colon;||&colon;	!	!LO:TX:a:t=P:problem=ozdobna kreska końcowa &colon;||&colon;	!LO:TX:a:t=P:problem=ozdobna kreska końcowa &colon;||&colon;	!	!	!	!	!	!	!	!
==	==	==	==	==	==	==	==	==	==	==	==
*-	*-	*-	*-	*-	*-	*-	*-	*-	*-	*-	*-
!!title: @{OTL};
!!!RDF**kern: > = above
!!!RDF**kern: < = below
!!!RDF**kern: i = editorial accidental
!!!EED: Wojciech Jakubiak-Danek
!!!EEV: 2020-11-08
!!!URL-scan: http://bc.bdsandomierz.pl/dlibra/publication/1796/edition/1777/content
!!!ONB-nifc: UWAGA: części Psalmi: De profundis clamavi, Memento Domine David
!!!ENC: Andrzej Kubiczek
!!!END: 2020-05-05
